X:12141
T:O'Callaghan's
S:unknown, photocopy. No.19 on p.11
I:speed 250
M:C
K:G
Bd |: (3efg fg eABA | GABd dBGE | DEGA BABd | (3efg fg edBd | 
~g2 fg edBd | ge (3agf gfed | ~B2 GB ~A2 FA |[1 G2 GF GABd :|[2 G2 GF G2
|:(3efg | afge dega | bBBA G2 (3efg | afge dega | beed e2 eg | 
fe (3def gfeg | (3faf (3def gfea | (3gab af gfed |[1Bded e2:|[2Bdedefgf|


